X:35
T: Eileen Murray's #2 (polka)
C: S. O Driscoll
Z: B.Black
L: 1/8
M: 2/4
R: polka
K: D
B2 FB | B2 FB | AF FE | DE FA |
B2 FB | B2 FB | AF FA | B2 B2 :|
d2 df | ec Ac | d2 de | fg a2 |
d2 df | ec Ac | dB c/2B/2A | B2 B2 :|
